X:3211
T:Jämtfeber
R:Polska
C: L Peterzon
O:Lägdan, Jämtland
M:3/4
L:1/8
K:Dm
|: A>g f2 e>d|(3^cde ^c>B A>G|A>g f2 e>d|(3^cde (3cB-B A>G|
A>g f2 e>d|(3zde cB/c/ AG|FG/A/ Bc/B/ (3ABA|(3GzA ^F2 G2:|
|:(3^FzG A2 A2|(3^cde (3Bcd B>A|(3Ez^F G2 G2|(3^cde (3Bcd (3BA-A|
(3^FzG A2 A2|(3^cde (3Bcd B>A| (3Gz^F G>A (3BcB|(3^FAB G2 G2:|
(:musicend:)
(:music:)
